X:145
T:Charms of the Fair. VWMLa.145
%%VWML:Anon2-3049-p86-0
F:http://www.vwml.org/record/Anon2/3049/p86
S:Anon. MS, late 18thC, Vaughan Williams Mem. Library
O:England;Yorkshire
Z:vmp/efdss.Simon Wilson. Reviewed PJH 2008.
M:6/8
L:1/8
Q:3/8=120
K:C
G>AG GEC|E2G A2A|G2G f2e|dec BAG|\
G>AG GEC|E2G A2A|Afe dcB|c6:|
|:e2c gec|d2B gdB|cBc Adc|BGG G3|\
A2F cAF|G2E cGE|FEF DGF|ECC C3:|
T:Card Assembly. VWMLa.146
R:Country-dance
S:Anon. MS, late 18thC, Vaughan Williams Mem. Library
O:England;Yorkshire
Z:vmp/efdss.Simon Wilson. Reviewed PJH 2008.
M:2/4
L:1/8
Q:1/4=140
K:D
ddfd|eege|ddfd|e/d/c/B/A2|\
ddfd|eege|faAc|d2d2|
ffaf|affd|eege|geec|\
ffaf|affd|eg f/e/d/c/|d2d2|
"P"ddcc|BBAA|BBcc|d/c/d/e/d2|\
ddcc|BBAA|BBcc|d2d2|
"^F"a2fa|g2eg|fdcd|e/d/c/B/A2|\
a2fa|g2eg|fd f/e/d/c/|d2d2|]
